icons/svg/16x16/subtract squircle/outline.svg

<svg xmlns="http://www.w3.org/2000/svg" width="16" height="16" viewBox="0 0 16 16">
  <path fill-rule="evenodd" d="M10.9648,9 L4.9648,9 C4.4128,9 3.9648,8.553 3.9648,8 C3.9648,7.447 4.4128,7 4.9648,7 L10.9648,7 C11.5168,7 11.9648,7.447 11.9648,8 C11.9648,8.553 11.5168,9 10.9648,9 M12.6545,11.2494 C12.5025,11.9514 11.9515,12.5034 11.2495,12.6544 C10.1885,12.8834 9.0955,13.0004 8.0005,13.0004 C6.9045,13.0004 5.8115,12.8834 4.7505,12.6544 C4.0485,12.5034 3.4975,11.9514 3.3455,11.2494 C3.1165,10.1894 3.0005,9.0954 3.0005,8.0004 C3.0005,6.9034 3.1165,5.8104 3.3455,4.7504 C3.4975,4.0484 4.0485,3.4974 4.7505,3.3454 C5.8115,3.1164 6.9045,3.0004 8.0005,3.0004 C9.0965,3.0004 10.1895,3.1164 11.2495,3.3454 C11.9515,3.4974 12.5025,4.0484 12.6545,4.7514 C12.8835,5.8114 13.0005,6.9044 13.0005,8.0004 C13.0005,9.0954 12.8835,10.1884 12.6545,11.2494 M14.6095,4.3284 C14.2915,2.8564 13.1435,1.7094 11.6715,1.3904 C10.4885,1.1344 9.2595,1.0004 8.0005,1.0004 C6.7405,1.0004 5.5115,1.1344 4.3285,1.3904 C2.8565,1.7084 1.7085,2.8564 1.3905,4.3284 C1.1345,5.5114 1.0005,6.7404 1.0005,8.0004 C1.0005,9.2594 1.1345,10.4884 1.3905,11.6714 C1.7085,13.1434 2.8555,14.2914 4.3285,14.6094 C5.5115,14.8654 6.7405,15.0004 8.0005,15.0004 C9.2595,15.0004 10.4885,14.8654 11.6715,14.6094 C13.1435,14.2914 14.2915,13.1434 14.6095,11.6714 C14.8655,10.4884 15.0005,9.2594 15.0005,8.0004 C15.0005,6.7404 14.8655,5.5114 14.6095,4.3284"/>
</svg>

<svg width="16" height="16" fill="none" xmlns="http://www.w3.org/2000/svg">
  <path fill-rule="evenodd" clip-rule="evenodd" d="M10.965 9h-6a1 1 0 110-2h6a1 1 0 110 2zm1.69 2.25a1.836 1.836 0 01-1.405 1.404 15.428 15.428 0 01-6.5 0 1.836 1.836 0 01-1.405-1.405A15.42 15.42 0 013 8c0-1.097.116-2.19.345-3.25A1.838 1.838 0 014.75 3.345a15.43 15.43 0 016.5 0 1.838 1.838 0 011.405 1.406 15.413 15.413 0 010 6.498zm1.955-6.922a3.833 3.833 0 00-2.938-2.938A17.347 17.347 0 008 1c-1.26 0-2.49.134-3.672.39A3.832 3.832 0 001.39 4.328 17.35 17.35 0 001 8c0 1.26.134 2.488.39 3.671a3.83 3.83 0 002.938 2.938A17.35 17.35 0 008 15c1.258 0 2.488-.135 3.67-.39a3.832 3.832 0 002.939-2.939c.256-1.183.39-2.412.39-3.67 0-1.26-.134-2.49-.39-3.673z" fill="#000"/>
</svg>
